X: 1
T:The Battle of the Somme
C:Willie Laurie
S:Forgotten
R:march
M:9/8
L:1/8
K:D
A|f<af d3 d>cd|e>dG B3 A3| B<GB A3 d3|f<af e3 e2 A|f<af d3 d>cd|
e>dG B3 A3|B<GB A3 f3|e>fe d3 d2::z|d>cd e3 A3|e>fg f<af d3|\
f>ef g3 A3|
f<af e3 e2 A|f<af d3 d>cd|e>dG B3 A3|B<GB A3 f3|e>fe d3 d2:|]
